packages/core/src/svgs/wallets/branded/token-pocket.svg

<svg width="24" height="24" viewBox="0 0 24 24" fill="none" xmlns="http://www.w3.org/2000/svg">
<path d="M15.7228 10.6594V15.6884C15.8595 15.721 15.9998 15.7463 16.1437 15.7681C16.3451 15.7971 16.5537 15.8152 16.7624 15.8189C16.7732 15.8189 16.784 15.8189 16.7984 15.8189V11.8188C16.1976 11.779 15.7228 11.2754 15.7228 10.6594Z" fill="url(#paint0_linear_134_481)"/>
<path d="M15.7194 10.6594H11.7555V17.8659C11.7555 18.2066 12.0288 18.4819 12.3669 18.4819H15.108C15.4461 18.4819 15.7194 18.2066 15.7194 17.8659V10.6594Z" fill="#2980FE"/>
<path d="M9.84168 5.5H2.61146C2.27337 5.5 2 5.77536 2 6.11599V8.61595C2 8.95659 2.27337 9.23194 2.61146 9.23194H4.93883V17.8841C4.93883 18.2246 5.2122 18.5 5.55039 18.5H8.15468C8.49277 18.5 8.76614 18.2246 8.76614 17.8841V9.23194H9.83092C10.8525 9.23194 11.6834 8.39495 11.6834 7.36597C11.6942 6.33699 10.8633 5.5 9.84168 5.5Z" fill="#2980FE"/>
<path d="M16.8777 5.5C14.0504 5.5 11.7555 7.81164 11.7555 10.6595C11.7555 13.1088 13.4497 15.1595 15.7231 15.6884V10.6595C15.7231 10.0182 16.241 9.49637 16.8777 9.49637C17.5145 9.49637 18.0324 10.0182 18.0324 10.6595C18.0324 11.1993 17.6691 11.6522 17.1727 11.7827C17.0792 11.808 16.9785 11.8225 16.8777 11.8225V15.8189C16.9785 15.8189 17.0755 15.8152 17.1727 15.8116C19.8633 15.6558 22 13.4095 22 10.6595C22.0036 7.81164 19.7086 5.5 16.8777 5.5Z" fill="#2980FE"/>
<path d="M16.8776 15.8188V11.8224C16.8488 11.8224 16.8237 11.8224 16.7949 11.8188V15.8188C16.8237 15.8188 16.8525 15.8188 16.8776 15.8188Z" fill="#2980FE"/>
<defs>
<linearGradient id="paint0_linear_134_481" x1="16.8791" y1="13.2399" x2="15.7233" y2="13.2399" gradientUnits="userSpaceOnUse">
<stop stop-color="#2980FE"/>
<stop offset="0.9667" stop-color="#6CA8FF"/>
<stop offset="1" stop-color="#2980FE"/>
</linearGradient>
</defs>
</svg>

<svg xmlns="http://www.w3.org/2000/svg" width="24" height="24" fill="none" viewBox="0 0 24 24">
    <path fill="url(#token-pocket__a)" d="M15.723 10.66v5.028a5 5 0 0 0 1.04.13h.035v-4a1.16 1.16 0 0 1-1.075-1.159"/>
    <path fill="#2980FE" d="M15.72 10.66h-3.965v7.206c0 .34.274.616.612.616h2.741a.613.613 0 0 0 .611-.616zM9.842 5.5h-7.23A.613.613 0 0 0 2 6.116v2.5c0 .34.273.616.611.616H4.94v8.652c0 .34.273.616.611.616h2.605a.613.613 0 0 0 .611-.616V9.232h1.065a1.86 1.86 0 0 0 1.852-1.866A1.845 1.845 0 0 0 9.842 5.5"/>
    <path fill="#2980FE" d="M16.878 5.5c-2.828 0-5.123 2.312-5.123 5.16 0 2.449 1.695 4.5 3.968 5.028V10.66a1.16 1.16 0 0 1 1.155-1.163 1.16 1.16 0 0 1 1.154 1.163 1.16 1.16 0 0 1-1.154 1.163v3.997q.15-.001.295-.007C19.863 15.656 22 13.41 22 10.66c.004-2.848-2.291-5.16-5.122-5.16"/>
    <path fill="#2980FE" d="M16.878 15.819v-3.997c-.03 0-.054 0-.083-.003v4z"/>
    <defs>
        <linearGradient id="token-pocket__a" x1="16.879" x2="15.723" y1="13.24" y2="13.24" gradientUnits="userSpaceOnUse">
            <stop stop-color="#2980FE"/>
            <stop offset=".967" stop-color="#6CA8FF"/>
            <stop offset="1" stop-color="#2980FE"/>
        </linearGradient>
    </defs>
</svg>
